X:3082
T:CLARK'S HORNPIPE
B:John of the Greeny Cheshire Way
N:© John Offord, Reproduced with permission
M:3/2
L:1/8
K:D
P:1
d2 A2 F2 D2 A2 d2|cd e2 Bc d2 c2 A2 | d2 f2 ef g2 fg a2 | A2 d2 cdec d4 ||
P:2
fefg fedc B2 d2| c2 e2 d2 B2 ^A2 F2 | BcdB cdec  de f2 | G2 B2 ^ABcA B2 =AG |
FEFD GFGE AGAF | BABG  cBcA   dcdB  | efed c2 A2 dcde  | fg a2  A2 c2 d4 |]


